svgs/light/gift.svg

<svg xmlns="http://www.w3.org/2000/svg" viewBox="0 0 512 512"><!--! Font Awesome Pro 6.6.0 by @fontawesome - https://fontawesome.com License - https://fontawesome.com/license (Commercial License) Copyright 2024 Fonticons, Inc. --><path d="M365.1 32c-17.6 0-33.9 9-43.2 23.9l-45 72.1 11.1 0 80 0c26.5 0 48-21.5 48-48s-21.5-48-48-48l-2.9 0zm-130 96l-45-72.1C180.8 41 164.5 32 146.9 32L144 32c-26.5 0-48 21.5-48 48s21.5 48 48 48l80 0 11.1 0zM256 101l38.8-62c15.2-24.2 41.7-39 70.3-39L368 0c44.2 0 80 35.8 80 80c0 18-6 34.6-16 48l32 0c26.5 0 48 21.5 48 48l0 64c0 20.9-13.4 38.7-32 45.3l0 2.7 0 160c0 35.3-28.7 64-64 64L96 512c-35.3 0-64-28.7-64-64l0-160 0-2.7C13.4 278.7 0 260.9 0 240l0-64c0-26.5 21.5-48 48-48l32 0C70 114.6 64 98 64 80C64 35.8 99.8 0 144 0l2.9 0c28.6 0 55.2 14.7 70.3 39L256 101zM144 160l-96 0c-8.8 0-16 7.2-16 16l0 64c0 8.8 7.2 16 16 16l16 0 176 0 0-96-16 0-80 0zm128 0l0 96 176 0 16 0c8.8 0 16-7.2 16-16l0-64c0-8.8-7.2-16-16-16l-96 0-80 0-16 0zM240 288L64 288l0 160c0 17.7 14.3 32 32 32l144 0 0-192zm32 192l144 0c17.7 0 32-14.3 32-32l0-160-176 0 0 192z"/></svg>

<svg xmlns="http://www.w3.org/2000/svg" viewBox="0 0 512 512"><!--! Font Awesome Pro 6.5.2 by @fontawesome - https://fontawesome.com License - https://fontawesome.com/license (Commercial License) Copyright 2024 Fonticons, Inc. --><path d="M365.1 32c-17.6 0-33.9 9-43.2 23.9l-45 72.1H288h80c26.5 0 48-21.5 48-48s-21.5-48-48-48h-2.9zm-130 96l-45-72.1C180.8 41 164.5 32 146.9 32H144c-26.5 0-48 21.5-48 48s21.5 48 48 48h80 11.1zM256 101l38.8-62c15.2-24.2 41.7-39 70.3-39H368c44.2 0 80 35.8 80 80c0 18-6 34.6-16 48h32c26.5 0 48 21.5 48 48v64c0 20.9-13.4 38.7-32 45.3V288 448c0 35.3-28.7 64-64 64H96c-35.3 0-64-28.7-64-64V288v-2.7C13.4 278.7 0 260.9 0 240V176c0-26.5 21.5-48 48-48H80C70 114.6 64 98 64 80C64 35.8 99.8 0 144 0h2.9c28.6 0 55.2 14.7 70.3 39L256 101zM144 160H48c-8.8 0-16 7.2-16 16v64c0 8.8 7.2 16 16 16H64 240V160H224 144zm128 0v96H448h16c8.8 0 16-7.2 16-16V176c0-8.8-7.2-16-16-16H368 288 272zM240 288H64V448c0 17.7 14.3 32 32 32H240V288zm32 192H416c17.7 0 32-14.3 32-32V288H272V480z"/></svg>
